static/assets/images/tokens/agusd.svg

<svg width="256" height="256" viewBox="0 0 256 256" fill="none" xmlns="http://www.w3.org/2000/svg">
<path d="M255.934 123.886C256.485 141.033 253.584 158.116 247.403 174.119C241.222 190.122 231.887 204.719 219.953 217.043C208.018 229.368 193.728 239.167 177.932 245.859C162.136 252.551 145.155 256 128 256C110.845 256 93.8642 252.551 78.0678 245.859C62.2715 239.167 47.9817 229.368 36.0475 217.043C24.1133 204.719 14.7782 190.122 8.59706 174.119C2.4159 158.116 -0.485206 141.033 0.0661197 123.886C1.13421 90.6682 15.0809 59.1678 38.9566 36.0475C62.8322 12.9272 94.7646 0 128 0C161.235 0 193.168 12.9272 217.043 36.0475C240.919 59.1678 254.866 90.6682 255.934 123.886Z" fill="url(#paint0_linear_9225_919)"/>
<path d="M197.752 106.167L127.934 34.7625L57.8512 106.167L92.7603 141.87L127.802 106.167L162.711 141.87L197.752 106.167Z" fill="white"/>
<path d="M81.2562 207.192C78.1554 207.287 75.0757 206.653 72.2645 205.341C69.8843 204.019 67.9008 202.167 66.5785 199.787C65.2562 197.407 64.7273 194.63 64.7273 191.457V163.953H72.6612V191.721C72.6612 194.366 73.3223 196.349 74.7769 197.804C76.3636 199.258 78.4793 200.052 81.2562 200.052C83.9008 200.052 86.1488 199.258 87.6033 197.804C88.3719 196.996 88.9677 196.04 89.3542 194.994C89.7408 193.948 89.9099 192.835 89.8512 191.721V163.953H97.7851V191.457C97.7851 194.63 97.124 197.407 95.8017 199.787C94.5207 202.178 92.5357 204.117 90.1157 205.341C87.6033 206.531 84.8265 207.192 81.2562 207.192Z" fill="#1F2333"/>
<path fill-rule="evenodd" clip-rule="evenodd" d="M71.7355 206.267C69.0909 204.944 67.1074 202.829 65.6529 200.316C64.2666 197.573 63.585 194.529 63.6694 191.457V162.895H73.719V191.721C73.719 194.101 74.3802 195.688 75.5703 197.01C76.8926 198.333 78.6116 198.994 81.2562 198.994C83.9008 198.994 85.6198 198.333 86.8099 197.01C88.1322 195.688 88.7934 194.101 88.7934 191.721V162.895H98.843V191.457C98.843 194.762 98.1818 197.804 96.7273 200.316C95.405 202.961 93.2893 204.812 90.6446 206.267C88 207.589 84.8265 208.25 81.2562 208.25C77.686 208.25 74.5124 207.589 71.8678 206.267H71.7355ZM74.7769 197.804C74.0382 196.981 73.4707 196.019 73.1075 194.975C72.7442 193.931 72.5925 192.825 72.6612 191.721V163.953H64.7273V191.457C64.7273 194.63 65.2562 197.407 66.5785 199.787C67.9008 202.167 69.8843 204.019 72.2645 205.341C75.0757 206.653 78.1554 207.287 81.2562 207.192C84.6942 207.192 87.6033 206.531 90.1157 205.341C92.5357 204.117 94.5207 202.178 95.8017 199.787C97.124 197.407 97.7851 194.63 97.7851 191.457V163.953H89.8512V191.721C89.8512 194.366 89.0579 196.349 87.6033 197.804C86.1488 199.258 84.0331 200.052 81.2562 200.052C78.4793 200.052 76.3636 199.258 74.7769 197.804Z" fill="#1F2333"/>
<path d="M128.595 207.192C125.421 207.192 122.512 206.531 120 205.341C117.488 204.283 115.504 202.564 114.182 200.316C112.727 198.201 112.066 195.556 112.066 192.515V190.796H120V192.515C120 195.159 120.661 197.01 122.248 198.201C123.835 199.523 125.95 200.184 128.595 200.184C131.372 200.184 133.355 199.655 134.81 198.465C136.132 197.407 136.793 196.085 136.793 194.366C136.821 193.835 136.742 193.304 136.56 192.804C136.378 192.304 136.098 191.846 135.736 191.457C134.931 190.641 133.929 190.049 132.826 189.738C131.504 189.209 130.182 188.812 128.331 188.415L127.008 188.151C123.967 187.49 121.455 186.696 119.339 185.639C117.439 184.744 115.801 183.379 114.579 181.672C113.521 180.085 112.992 178.101 112.992 175.457C112.992 172.812 113.653 170.696 114.843 168.845C116.123 166.972 117.913 165.504 120 164.614C122.248 163.688 124.893 163.159 127.934 163.159C130.975 163.159 133.62 163.688 135.868 164.746C138.38 165.672 140.231 167.258 141.554 169.374C142.957 171.63 143.648 174.257 143.537 176.911V178.762H135.603V176.911C135.603 175.324 135.339 174.002 134.81 172.944C134.192 171.961 133.26 171.216 132.165 170.829C130.843 170.432 129.521 170.167 127.934 170.167C125.554 170.167 123.702 170.564 122.645 171.49C121.322 172.415 120.793 173.605 120.793 175.192C120.793 176.25 121.058 177.176 121.587 177.837C122.248 178.63 122.909 179.159 124.231 179.688C125.157 180.217 126.612 180.614 128.198 181.01L129.653 181.275C132.694 181.936 135.339 182.729 137.587 183.787C139.835 184.713 141.554 186.035 142.876 187.754C144.066 189.341 144.727 191.457 144.727 194.101C144.727 196.746 143.934 198.994 142.612 200.977C141.208 202.957 139.287 204.513 137.058 205.473C134.678 206.663 131.901 207.192 128.595 207.192Z" fill="#1F2333"/>
<path fill-rule="evenodd" clip-rule="evenodd" d="M111.008 189.738H120.926V192.515C120.926 194.895 121.587 196.481 122.909 197.407C124.231 198.465 126.083 199.126 128.595 199.126C131.24 199.126 133.091 198.597 134.149 197.804C134.679 197.408 135.102 196.887 135.379 196.286C135.656 195.686 135.779 195.026 135.736 194.366C135.736 193.44 135.471 192.779 135.074 192.25C134.545 191.721 133.752 191.192 132.43 190.796C131.372 190.267 129.785 189.87 128.066 189.473L126.744 189.209C124.056 188.61 121.44 187.723 118.942 186.564C116.842 185.637 115.019 184.178 113.653 182.333C112.474 180.289 111.923 177.944 112.066 175.589C112.066 172.944 112.727 170.432 114.05 168.448C115.372 166.465 117.355 164.878 119.736 163.82C122.116 162.762 125.025 162.234 128.066 162.234C131.24 162.234 134.017 162.762 136.529 163.953C139.174 165.01 141.025 166.597 142.479 168.845C144.066 171.093 144.727 173.87 144.727 177.043V179.953H134.81V176.911C134.81 175.457 134.545 174.267 134.017 173.605C133.536 172.801 132.787 172.192 131.901 171.886C130.843 171.49 129.521 171.225 127.934 171.225C125.686 171.225 124.231 171.622 123.306 172.415C122.512 173.077 121.983 174.002 121.983 175.192C121.983 176.118 122.248 176.779 122.645 177.308C123.041 177.837 123.702 178.366 124.628 178.63C125.686 179.159 127.008 179.556 128.595 179.953L129.917 180.217C133.091 180.878 135.736 181.804 138.116 182.862C140.496 183.919 142.347 185.242 143.802 187.093C145.124 188.944 145.785 191.324 145.785 194.101C145.785 196.878 145.124 199.391 143.669 201.506C142.347 203.622 140.231 205.341 137.719 206.531C134.883 207.753 131.814 208.34 128.727 208.25C125.631 208.299 122.561 207.667 119.736 206.399C117.091 205.077 114.975 203.358 113.388 200.977C111.802 198.597 111.141 195.688 111.141 192.515L111.008 189.738ZM142.744 200.977C144.095 198.943 144.787 196.543 144.727 194.101C144.727 191.457 144.066 189.473 142.744 187.754C141.349 186.001 139.528 184.635 137.455 183.787C134.951 182.674 132.336 181.831 129.653 181.275L128.331 181.01C126.612 180.614 125.157 180.217 124.099 179.688C123.041 179.291 122.248 178.63 121.587 177.969C121.058 177.176 120.793 176.25 120.793 175.324C120.793 173.605 121.455 172.415 122.512 171.49C123.835 170.564 125.554 170.167 127.802 170.167C129.521 170.167 130.975 170.432 132.033 170.829C133.355 171.358 134.149 172.151 134.678 173.077C135.339 174.002 135.736 175.324 135.736 177.043V178.762H143.669V176.911C143.741 174.243 143.004 171.615 141.554 169.374C140.227 167.293 138.286 165.675 136 164.746C133.62 163.688 130.975 163.159 127.934 163.159C124.893 163.159 122.248 163.688 120 164.614C117.752 165.672 116.033 166.994 114.711 168.845C113.653 170.696 112.992 172.812 112.992 175.457C112.992 178.101 113.521 180.217 114.579 181.804C115.769 183.391 117.223 184.713 119.339 185.771C121.455 186.696 123.967 187.49 126.876 188.151L128.198 188.415C130.05 188.812 131.636 189.209 132.826 189.738C133.929 190.049 134.931 190.641 135.736 191.457C136.397 192.25 136.793 193.176 136.793 194.366C136.793 196.085 136.132 197.407 134.81 198.465C133.488 199.655 131.372 200.184 128.595 200.184C125.95 200.184 123.835 199.523 122.248 198.333C120.661 197.01 119.868 195.027 119.868 192.515V190.796H111.934V192.515C111.863 195.193 112.576 197.834 113.986 200.112C115.395 202.391 117.44 204.208 119.868 205.341C122.512 206.663 125.421 207.192 128.595 207.192C131.901 207.192 134.678 206.663 137.058 205.473C139.287 204.513 141.208 202.957 142.612 200.977H142.744Z" fill="#1F2333"/>
<path d="M158.876 206.267V199.391H164.43V171.093H158.876V164.085H176.331C182.017 164.085 186.248 165.539 189.289 168.448C192.198 171.358 193.653 175.589 193.653 181.275V189.209C193.653 194.895 192.331 199.258 189.289 202.167C186.248 204.944 182.017 206.399 176.331 206.399L158.876 206.267ZM172.364 198.994H176.331C179.636 198.994 182.017 198.201 183.471 196.482C184.926 194.762 185.719 192.515 185.719 189.341V180.878C185.719 177.837 184.926 175.457 183.471 173.738C182.017 172.151 179.636 171.225 176.463 171.225H172.496L172.364 198.994Z" fill="#1F2333"/>
<path fill-rule="evenodd" clip-rule="evenodd" d="M157.818 207.324V198.201H163.372V172.019H157.818V162.895H176.331C182.149 162.895 186.777 164.481 189.95 167.523C193.256 170.696 194.711 175.324 194.711 181.143V189.077C194.711 195.027 193.256 199.655 189.95 202.829C186.777 205.87 182.149 207.324 176.331 207.324H157.818ZM164.43 170.961V199.391H158.876V206.399H176.331C182.017 206.399 186.248 205.077 189.289 202.167C192.198 199.258 193.653 194.895 193.653 189.209V181.275C193.653 175.589 192.331 171.358 189.289 168.448C186.248 165.539 182.017 164.085 176.331 164.085H158.876V171.093L164.43 170.961ZM182.678 174.531C181.355 173.209 179.504 172.283 176.463 172.283H173.421V198.068H176.463C179.504 198.068 181.488 197.275 182.678 195.953C184 194.498 184.661 192.382 184.661 189.473V180.878C184.661 177.969 184 175.853 182.678 174.531ZM176.463 198.994C179.636 198.994 182.017 198.201 183.471 196.482C184.926 194.762 185.719 192.515 185.719 189.341V180.878C185.719 177.837 184.926 175.457 183.471 173.738C182.017 172.151 179.636 171.225 176.463 171.225H172.496V198.994H176.463Z" fill="#1F2333"/>
<defs>
<linearGradient id="paint0_linear_9225_919" x1="41.4545" y1="201.374" x2="184.529" y2="74.2997" gradientUnits="userSpaceOnUse">
<stop offset="0.1" stop-color="#C3EEE4"/>
<stop offset="1" stop-color="#2AC8A5"/>
</linearGradient>
</defs>
</svg>

<svg xmlns="http://www.w3.org/2000/svg" fill="none" viewBox="0 0 256 256"><path fill="url(#paint0_linear_9225_919)" d="M255.934 123.886a128 128 0 0 1-35.981 93.157 128 128 0 0 1-141.885 28.816A127.998 127.998 0 0 1 128 0a128 128 0 0 1 127.934 123.886"/><path fill="#fff" d="m197.752 106.167-69.818-71.404-70.083 71.404 34.91 35.703 35.041-35.703 34.909 35.703z"/><path fill="#1F2333" d="M81.256 207.192c-3.1.095-6.18-.539-8.992-1.851-2.38-1.322-4.363-3.174-5.685-5.554-1.323-2.38-1.852-5.157-1.852-8.33v-27.504h7.934v27.768c0 2.645.661 4.628 2.116 6.083 1.587 1.454 3.702 2.248 6.48 2.248 2.644 0 4.892-.794 6.346-2.248a8.2 8.2 0 0 0 2.248-6.083v-27.768h7.934v27.504q0 4.76-1.983 8.33a13.2 13.2 0 0 1-5.686 5.554c-2.513 1.19-5.29 1.851-8.86 1.851"/><path fill="#1F2333" fill-rule="evenodd" d="M71.736 206.267c-2.645-1.323-4.629-3.438-6.083-5.951a18.5 18.5 0 0 1-1.984-8.859v-28.562h10.05v28.826c0 2.38.661 3.967 1.851 5.289 1.323 1.323 3.042 1.984 5.686 1.984s4.364-.661 5.554-1.984c1.322-1.322 1.983-2.909 1.983-5.289v-28.826h10.05v28.562c0 3.305-.661 6.347-2.116 8.859-1.322 2.645-3.438 4.496-6.082 5.951-2.645 1.322-5.818 1.983-9.389 1.983s-6.744-.661-9.388-1.983zm3.04-8.463a8.34 8.34 0 0 1-2.115-6.083v-27.768h-7.934v27.504c0 3.173.53 5.95 1.852 8.33s3.305 4.232 5.686 5.554a19.8 19.8 0 0 0 8.991 1.851c3.438 0 6.347-.661 8.86-1.851a13.2 13.2 0 0 0 5.686-5.554q1.983-3.57 1.983-8.33v-27.504h-7.934v27.768c0 2.645-.793 4.628-2.248 6.083-1.454 1.454-3.57 2.248-6.347 2.248s-4.892-.794-6.48-2.248" clip-rule="evenodd"/><path fill="#1F2333" d="M128.595 207.192c-3.174 0-6.083-.661-8.595-1.851-2.512-1.058-4.496-2.777-5.818-5.025-1.455-2.115-2.116-4.76-2.116-7.801v-1.719H120v1.719c0 2.644.661 4.495 2.248 5.686q2.38 1.983 6.347 1.983c2.777 0 4.76-.529 6.215-1.719 1.322-1.058 1.983-2.38 1.983-4.099a3.96 3.96 0 0 0-1.057-2.909 6.6 6.6 0 0 0-2.91-1.719c-1.322-.529-2.644-.926-4.495-1.323l-1.323-.264c-3.041-.661-5.553-1.455-7.669-2.512a12.3 12.3 0 0 1-4.76-3.967c-1.058-1.587-1.587-3.571-1.587-6.215 0-2.645.661-4.761 1.851-6.612a11.9 11.9 0 0 1 5.157-4.231c2.248-.926 4.893-1.455 7.934-1.455q4.562 0 7.934 1.587c2.512.926 4.363 2.512 5.686 4.628a13.23 13.23 0 0 1 1.983 7.537v1.851h-7.934v-1.851q0-2.38-.793-3.967a5.15 5.15 0 0 0-2.645-2.115c-1.322-.397-2.644-.662-4.231-.662-2.38 0-4.232.397-5.289 1.323-1.323.925-1.852 2.115-1.852 3.702 0 1.058.265 1.984.794 2.645.661.793 1.322 1.322 2.644 1.851.926.529 2.381.926 3.967 1.322l1.455.265c3.041.661 5.686 1.454 7.934 2.512 2.248.926 3.967 2.248 5.289 3.967 1.19 1.587 1.851 3.703 1.851 6.347s-.793 4.893-2.115 6.876a13.2 13.2 0 0 1-5.554 4.496c-2.38 1.19-5.157 1.719-8.463 1.719"/><path fill="#1F2333" fill-rule="evenodd" d="M111.008 189.738h9.918v2.777c0 2.38.661 3.966 1.983 4.892 1.322 1.058 3.174 1.719 5.686 1.719 2.645 0 4.496-.529 5.554-1.322a3.97 3.97 0 0 0 1.587-3.438c0-.926-.265-1.587-.662-2.116-.529-.529-1.322-1.058-2.644-1.454-1.058-.529-2.645-.926-4.364-1.323l-1.322-.264a38.4 38.4 0 0 1-7.802-2.645 13.23 13.23 0 0 1-5.289-4.231 12.04 12.04 0 0 1-1.587-6.744c0-2.645.661-5.157 1.984-7.141s3.305-3.57 5.686-4.628 5.289-1.586 8.33-1.586c3.174 0 5.951.528 8.463 1.719 2.645 1.057 4.496 2.644 5.95 4.892 1.587 2.248 2.248 5.025 2.248 8.198v2.91h-9.917v-3.042c0-1.454-.265-2.644-.793-3.306a3.98 3.98 0 0 0-2.116-1.719c-1.058-.396-2.38-.661-3.967-.661-2.248 0-3.703.397-4.628 1.19-.794.662-1.323 1.587-1.323 2.777 0 .926.265 1.587.662 2.116.396.529 1.057 1.058 1.983 1.322 1.058.529 2.38.926 3.967 1.323l1.322.264a39.8 39.8 0 0 1 8.199 2.645c2.38 1.057 4.231 2.38 5.686 4.231 1.322 1.851 1.983 4.231 1.983 7.008s-.661 5.29-2.116 7.405c-1.322 2.116-3.438 3.835-5.95 5.025a21.2 21.2 0 0 1-8.992 1.719 21.1 21.1 0 0 1-8.991-1.851c-2.645-1.322-4.761-3.041-6.348-5.422s-2.247-5.289-2.247-8.462zm31.736 11.239a11.9 11.9 0 0 0 1.983-6.876c0-2.644-.661-4.628-1.983-6.347a13.1 13.1 0 0 0-5.289-3.967 38.4 38.4 0 0 0-7.802-2.512l-1.322-.265c-1.719-.396-3.174-.793-4.232-1.322-1.058-.397-1.851-1.058-2.512-1.719a4.77 4.77 0 0 1-.794-2.645c0-1.719.662-2.909 1.719-3.834 1.323-.926 3.042-1.323 5.29-1.323 1.719 0 3.173.265 4.231.662 1.322.529 2.116 1.322 2.645 2.248.661.925 1.058 2.247 1.058 3.966v1.719h7.933v-1.851a13.2 13.2 0 0 0-2.115-7.537 11.9 11.9 0 0 0-5.554-4.628c-2.38-1.058-5.025-1.587-8.066-1.587s-5.686.529-7.934 1.455c-2.248 1.058-3.967 2.38-5.289 4.231-1.058 1.851-1.719 3.967-1.719 6.612q0 3.966 1.587 6.347c1.19 1.587 2.644 2.909 4.76 3.967q3.174 1.388 7.537 2.38l1.322.264c1.852.397 3.438.794 4.628 1.323a6.6 6.6 0 0 1 2.91 1.719c.661.793 1.057 1.719 1.057 2.909 0 1.719-.661 3.041-1.983 4.099-1.322 1.19-3.438 1.719-6.215 1.719-2.645 0-4.76-.661-6.347-1.851-1.587-1.323-2.38-3.306-2.38-5.818v-1.719h-7.934v1.719a13.75 13.75 0 0 0 7.934 12.826c2.644 1.322 5.553 1.851 8.727 1.851 3.306 0 6.083-.529 8.463-1.719a13.2 13.2 0 0 0 5.554-4.496z" clip-rule="evenodd"/><path fill="#1F2333" d="M158.876 206.267v-6.876h5.554v-28.298h-5.554v-7.008h17.455c5.686 0 9.917 1.454 12.958 4.363 2.909 2.91 4.364 7.141 4.364 12.827v7.934c0 5.686-1.322 10.049-4.364 12.958-3.041 2.777-7.272 4.232-12.958 4.232zm13.488-7.273h3.967c3.305 0 5.686-.793 7.14-2.512 1.455-1.72 2.248-3.967 2.248-7.141v-8.463c0-3.041-.793-5.421-2.248-7.14-1.454-1.587-3.835-2.513-7.008-2.513h-3.967z"/><path fill="#1F2333" fill-rule="evenodd" d="M157.818 207.324v-9.123h5.554v-26.182h-5.554v-9.124h18.513c5.818 0 10.446 1.586 13.619 4.628 3.306 3.173 4.761 7.801 4.761 13.62v7.934c0 5.95-1.455 10.578-4.761 13.752-3.173 3.041-7.801 4.495-13.619 4.495zm6.612-36.363v28.43h-5.554v7.008h17.455c5.686 0 9.917-1.322 12.958-4.232 2.909-2.909 4.364-7.272 4.364-12.958v-7.934c0-5.686-1.322-9.917-4.364-12.827-3.041-2.909-7.272-4.363-12.958-4.363h-17.455v7.008zm18.248 3.57c-1.323-1.322-3.174-2.248-6.215-2.248h-3.042v25.785h3.042c3.041 0 5.025-.793 6.215-2.115 1.322-1.455 1.983-3.571 1.983-6.48v-8.595q0-4.364-1.983-6.347m-6.215 24.463c3.173 0 5.554-.793 7.008-2.512 1.455-1.72 2.248-3.967 2.248-7.141v-8.463c0-3.041-.793-5.421-2.248-7.14-1.454-1.587-3.835-2.513-7.008-2.513h-3.967v27.769z" clip-rule="evenodd"/><defs><linearGradient id="paint0_linear_9225_919" x1="41.455" x2="184.529" y1="201.374" y2="74.3" gradientUnits="userSpaceOnUse"><stop offset=".1" stop-color="#C3EEE4"/><stop offset="1" stop-color="#2AC8A5"/></linearGradient></defs></svg>
